X: 06075
T: PETER KENNEY'S HORNPIPE
C: Bob McQuillen 9 Nov 81
B: Bob's Note Book 6 #75
%R: hornpipe, reel
Z: 2021 John Chambers <jc:trillian.mit.edu>
M: C
L: 1/8
K: Em
ga \
| bgeg edBA | Bdeg edga | bgeg edBA | G2E2 E2EF |\
| GEGB ABGA | Bdeg abga | bage dBAB | G2E2 E2 :|
|: FG \
| G4 A4 | BAGF EDB,D | EDEG A2GA | Bded BAGF |\
| E4 F4 | GEGB AGBd | edBG EDB,A, | B,2E2 E2 :|
%%begintext align
%% Pete plays banjo
%% at the Monday Night dances - Like the rest
%% of us, he's really into the music and we all
%% have such a great time together -
%%endtext

%%sep 1 1 500

%%sep 1 1 500

